!!!COM: Claude Goudimel
!!!OMD: Psalm 52: Di-moy, malheureux, qui te
**kern	**kern	**kern	**kern
*part4	*part3	*part2	*part1
*staff4	*staff3	*staff2	*staff1
*I"bassus	*I"tenor	*I"contra	*I"superius
*clefF3	*clefC3	*clefC2	*clefG2
*k[b-]	*k[b-]	*k[b-]	*k[b-]
!!LO:TX:omd:t=
*M2/2	*M2/2	*M2/2	*M2/2
*met(c|)	*met(c|)	*met(c|)	*met(c|)
=1	=1	=1	=1
1F	1c	1f	1a
=2	=2	=2	=2
1A	1c	1e	1a
=3	=3	=3	=3
2G	2d	2g	2b-
2c	2e	2g	2cc
=4	=4	=4	=4
1B-	1f	1d	1dd
=5	=5	=5	=5
2B-	2f	2d	2dd
2c	2e	2g	[2cc
=6	=6	=6	=6
1G	1d	1g	2cc]
.	.	.	2bn
=7	=7	=7	=7
1C	1c	1e	1cc
=8	=8	=8	=8
1F	1A	1c	1f
=9	=9	=9	=9
2BB-	2d	2f	2b-
2BB-	2d	2f	2b-
=10	=10	=10	=10
2F	2c	2f	2a
2G	2Bn	2d	2g
=11	=11	=11	=11
1F	1c	1f	1a
=12	=12	=12	=12
1r	1r	1r	1r
=13	=13	=13	=13
1D	1A	1d	1f
=14	=14	=14	=14
1G	1B-	1d	1g
=15	=15	=15	=15
1F	1c	1A	1f
=16	=16	=16	=16
2F	2A	2F	2c
2D	2F	2A	2d
=17	=17	=17	=17
2E-X	2B-	2G	2g
2F	2A	2c	[2f
=18	=18	=18	=18
1C	1G	1c	2f]
.	.	.	2e
=19	=19	=19	=19
1F	1F	1c	1f
=20	=20	=20	=20
1F	1c	1f	1a
=21	=21	=21	=21
2G	2B-	2d	2g
2D	2A	2d	2f
=22	=22	=22	=22
2D	2F	2A	2d
2C	2G	2c	2e
=23	=23	=23	=23
1F	1A	1c	1f
=24	=24	=24	=24
1r	1r	1r	1r
=25	=25	=25	=25
1D	1A	1F	1d
=26	=26	=26	=26
2D	2F	2A	2d
2C	2G	2c	2e
=27	=27	=27	=27
2F	2A	2c	2f
2F	2c	2f	2a
=28	=28	=28	=28
1G	1B-	1d	1g
=29	=29	=29	=29
1D	1A	1d	1f#X
=30	=30	=30	=30
2G	2G	2d	2g
2F	2c	2A	2a
=31	=31	=31	=31
2BB-	2B-	2d	2f
2C	2A	2c	[2a
=32	=32	=32	=32
1D	1F	1A	2a]
.	.	.	[2f
=33	=33	=33	=33
1C	1G	1c	2f]
.	.	.	2e
=34	=34	=34	=34
1F;	1F;	1c;	1f;
==	==	==	==
*-	*-	*-	*-
!!!software: music21 v.9.7.1
!!!software: music21 v.9.1.0
!!!RDF**kern: > = above
!!!RDF**kern: < = below
